img/logo.svg

<svg width="165" height="36" viewBox="0 0 165 36" fill="none" xmlns="http://www.w3.org/2000/svg">
<path d="M164.597 20.2727C164.597 22.2159 164.219 23.8551 163.463 25.1903C162.707 26.5199 161.688 27.5284 160.403 28.2159C159.119 28.8977 157.688 29.2386 156.108 29.2386C154.517 29.2386 153.08 28.8949 151.796 28.2074C150.517 27.5142 149.5 26.5028 148.744 25.1733C147.994 23.8381 147.619 22.2046 147.619 20.2727C147.619 18.3296 147.994 16.6932 148.744 15.3636C149.5 14.0284 150.517 13.0199 151.796 12.3381C153.08 11.6506 154.517 11.3068 156.108 11.3068C157.688 11.3068 159.119 11.6506 160.403 12.3381C161.688 13.0199 162.707 14.0284 163.463 15.3636C164.219 16.6932 164.597 18.3296 164.597 20.2727ZM159.722 20.2727C159.722 19.2273 159.582 18.3466 159.304 17.6307C159.031 16.9091 158.625 16.3636 158.085 15.9943C157.551 15.6193 156.892 15.4318 156.108 15.4318C155.324 15.4318 154.662 15.6193 154.122 15.9943C153.588 16.3636 153.182 16.9091 152.903 17.6307C152.631 18.3466 152.494 19.2273 152.494 20.2727C152.494 21.3182 152.631 22.2017 152.903 22.9233C153.182 23.6392 153.588 24.1847 154.122 24.5597C154.662 24.929 155.324 25.1136 156.108 25.1136C156.892 25.1136 157.551 24.929 158.085 24.5597C158.625 24.1847 159.031 23.6392 159.304 22.9233C159.582 22.2017 159.722 21.3182 159.722 20.2727Z" fill="#FF3D00"/>
<path d="M129.688 29V11.5455H134.426V18.3637H140.699V11.5455H145.438V29H140.699V22.1818H134.426V29H129.688Z" fill="#FF3D00"/>
<path d="M112.344 11.5455H117.082V20.6818H117.219L123.423 11.5455H127.446V29H122.707V19.8296H122.605L116.298 29H112.344V11.5455Z" fill="#FF3D00"/>
<path d="M105.123 29L99.7706 21.9432H99.1058V29H94.3672V11.5455H99.1058V18.125H99.7195L104.731 11.5455H110.697L104.049 19.9318L111.072 29H105.123Z" fill="#FF3D00"/>
<path d="M92.1748 20.2727C92.1748 22.2159 91.7969 23.8551 91.0413 25.1903C90.2856 26.5199 89.2657 27.5284 87.9816 28.2159C86.6975 28.8977 85.2657 29.2386 83.6861 29.2386C82.0952 29.2386 80.6577 28.8949 79.3736 28.2074C78.0952 27.5142 77.0782 26.5028 76.3225 25.1733C75.5725 23.8381 75.1975 22.2046 75.1975 20.2727C75.1975 18.3296 75.5725 16.6932 76.3225 15.3636C77.0782 14.0284 78.0952 13.0199 79.3736 12.3381C80.6577 11.6506 82.0952 11.3068 83.6861 11.3068C85.2657 11.3068 86.6975 11.6506 87.9816 12.3381C89.2657 13.0199 90.2856 14.0284 91.0413 15.3636C91.7969 16.6932 92.1748 18.3296 92.1748 20.2727ZM87.2998 20.2727C87.2998 19.2273 87.1606 18.3466 86.8822 17.6307C86.6094 16.9091 86.2032 16.3636 85.6634 15.9943C85.1293 15.6193 84.4702 15.4318 83.6861 15.4318C82.9021 15.4318 82.2401 15.6193 81.7003 15.9943C81.1663 16.3636 80.76 16.9091 80.4816 17.6307C80.2089 18.3466 80.0725 19.2273 80.0725 20.2727C80.0725 21.3182 80.2089 22.2017 80.4816 22.9233C80.76 23.6392 81.1663 24.1847 81.7003 24.5597C82.2401 24.929 82.9021 25.1136 83.6861 25.1136C84.4702 25.1136 85.1293 24.929 85.6634 24.5597C86.2032 24.1847 86.6094 23.6392 86.8822 22.9233C87.1606 22.2017 87.2998 21.3182 87.2998 20.2727Z" fill="white"/>
<path d="M59.5156 29V11.5455H67.0497C68.3452 11.5455 69.4787 11.8012 70.4503 12.3125C71.4219 12.8239 72.1776 13.5426 72.7173 14.4688C73.2571 15.3949 73.527 16.4773 73.527 17.7159C73.527 18.9659 73.2486 20.0483 72.6918 20.9631C72.1406 21.8779 71.3651 22.5824 70.3651 23.0767C69.3707 23.571 68.2088 23.8182 66.8793 23.8182H62.3793V20.1364H65.9247C66.4815 20.1364 66.956 20.0398 67.348 19.8466C67.7457 19.6477 68.0497 19.3665 68.2599 19.0029C68.4759 18.6392 68.5838 18.2102 68.5838 17.7159C68.5838 17.2159 68.4759 16.7898 68.2599 16.4375C68.0497 16.0796 67.7457 15.8068 67.348 15.6193C66.956 15.4262 66.4815 15.3296 65.9247 15.3296H64.2543V29H59.5156Z" fill="white"/>
<path d="M56.4837 11.5455V29H51.8132V15.2955H45.9155V29H41.2451V11.5455H56.4837Z" fill="white"/>
<path d="M23.625 13.5H5.625C3.76104 13.5 2.25 15.011 2.25 16.875V24.75C2.25 26.614 3.76104 28.125 5.625 28.125H23.625C25.489 28.125 27 26.614 27 24.75V16.875C27 15.011 25.489 13.5 23.625 13.5Z" fill="#FF3D00"/>
<path d="M33.75 25.875L27 22.5V19.125L33.75 15.75V25.875Z" fill="#FF3D00"/>
<path d="M20.25 11.25C22.7353 11.25 24.75 9.23528 24.75 6.75C24.75 4.26472 22.7353 2.25 20.25 2.25C17.7647 2.25 15.75 4.26472 15.75 6.75C15.75 9.23528 17.7647 11.25 20.25 11.25Z" fill="#FF3D00"/>
<path d="M9 11.25C10.864 11.25 12.375 9.73896 12.375 7.875C12.375 6.01104 10.864 4.5 9 4.5C7.13604 4.5 5.625 6.01104 5.625 7.875C5.625 9.73896 7.13604 11.25 9 11.25Z" fill="#FF3D00"/>
<path d="M34.0459 15.2719C33.9643 15.2216 33.8712 15.1929 33.7754 15.1886C33.6797 15.1843 33.5844 15.2044 33.4986 15.2471L27.5625 18.2149V16.875C27.5613 15.8311 27.1461 14.8303 26.4079 14.0921C25.6698 13.3539 24.6689 12.9387 23.625 12.9375H5.625C4.58108 12.9387 3.58025 13.3539 2.84208 14.0921C2.10392 14.8303 1.68869 15.8311 1.6875 16.875V24.75C1.68869 25.7939 2.10392 26.7948 2.84208 27.5329C3.58025 28.2711 4.58108 28.6863 5.625 28.6875H13.2671L8.60231 33.3523C8.49985 33.4584 8.44315 33.6005 8.44443 33.748C8.44572 33.8955 8.50487 34.0365 8.60916 34.1408C8.71346 34.2451 8.85454 34.3043 9.00202 34.3056C9.14951 34.3069 9.2916 34.2502 9.39769 34.1477L14.625 28.9204L19.8523 34.1477C19.9584 34.2502 20.1005 34.3069 20.248 34.3056C20.3955 34.3043 20.5365 34.2451 20.6408 34.1408C20.7451 34.0365 20.8043 33.8955 20.8056 33.748C20.8068 33.6005 20.7502 33.4584 20.6477 33.3523L15.9829 28.6875H23.625C24.6689 28.6863 25.6698 28.2711 26.4079 27.5329C27.1461 26.7948 27.5613 25.7939 27.5625 24.75V23.4101L33.4986 26.3784C33.5843 26.4213 33.6797 26.4415 33.7754 26.4372C33.8712 26.4328 33.9643 26.4041 34.0459 26.3537C34.1274 26.3032 34.1948 26.2328 34.2414 26.149C34.2881 26.0652 34.3125 25.9709 34.3125 25.875V15.75C34.3125 15.6542 34.2879 15.56 34.2413 15.4763C34.1946 15.3926 34.1274 15.3223 34.0459 15.2719ZM26.4375 24.75C26.4366 25.4956 26.14 26.2105 25.6128 26.7378C25.0855 27.265 24.3706 27.5616 23.625 27.5625H5.625C4.87935 27.5616 4.1645 27.265 3.63725 26.7378C3.11 26.2105 2.81339 25.4956 2.8125 24.75V16.875C2.81339 16.1294 3.11 15.4145 3.63725 14.8872C4.1645 14.36 4.87935 14.0634 5.625 14.0625H23.625C24.3706 14.0634 25.0855 14.36 25.6128 14.8872C26.14 15.4145 26.4366 16.1294 26.4375 16.875V24.75ZM33.1875 24.9649L27.5625 22.1524V19.4726L33.1875 16.6601V24.9649ZM20.25 11.8125C21.2513 11.8125 22.2301 11.5156 23.0626 10.9593C23.8951 10.403 24.544 9.61239 24.9271 8.68734C25.3103 7.76229 25.4106 6.74439 25.2152 5.76236C25.0199 4.78033 24.5377 3.87828 23.8297 3.17027C23.1217 2.46227 22.2197 1.98011 21.2376 1.78478C20.2556 1.58944 19.2377 1.68969 18.3127 2.07286C17.3876 2.45603 16.597 3.1049 16.0407 3.93743C15.4844 4.76995 15.1875 5.74873 15.1875 6.75C15.189 8.0922 15.7228 9.37901 16.6719 10.3281C17.621 11.2772 18.9078 11.811 20.25 11.8125ZM20.25 2.8125C21.0288 2.8125 21.79 3.04343 22.4376 3.47609C23.0851 3.90875 23.5898 4.5237 23.8878 5.24319C24.1858 5.96267 24.2638 6.75437 24.1118 7.51817C23.9599 8.28197 23.5849 8.98357 23.0342 9.53424C22.4836 10.0849 21.782 10.4599 21.0182 10.6118C20.2544 10.7638 19.4627 10.6858 18.7432 10.3878C18.0237 10.0898 17.4087 9.58508 16.9761 8.93756C16.5434 8.29004 16.3125 7.52877 16.3125 6.75C16.3137 5.70608 16.7289 4.70525 17.4671 3.96709C18.2052 3.22892 19.2061 2.81369 20.25 2.8125ZM9 11.8125C9.77876 11.8125 10.54 11.5816 11.1876 11.1489C11.8351 10.7163 12.3398 10.1013 12.6378 9.38182C12.9358 8.66233 13.0138 7.87063 12.8618 7.10683C12.7099 6.34303 12.3349 5.64144 11.7842 5.09077C11.2336 4.5401 10.532 4.16509 9.76817 4.01316C9.00437 3.86123 8.21267 3.93921 7.49318 4.23723C6.7737 4.53525 6.15875 5.03993 5.72609 5.68744C5.29343 6.33496 5.0625 7.09624 5.0625 7.875C5.06369 8.91893 5.47892 9.91975 6.21708 10.6579C6.95525 11.3961 7.95608 11.8113 9 11.8125ZM9 5.0625C9.55626 5.0625 10.1 5.22745 10.5625 5.53649C11.0251 5.84554 11.3855 6.28479 11.5984 6.79871C11.8113 7.31262 11.867 7.87812 11.7585 8.42369C11.6499 8.96926 11.3821 9.4704 10.9887 9.86374C10.5954 10.2571 10.0943 10.5249 9.54869 10.6335C9.00312 10.742 8.43762 10.6863 7.9237 10.4734C7.40979 10.2605 6.97053 9.90006 6.66149 9.43754C6.35245 8.97503 6.1875 8.43126 6.1875 7.875C6.18839 7.12936 6.485 6.4145 7.01225 5.88725C7.5395 5.36 8.25435 5.0634 9 5.0625Z" fill="white"/>
</svg>

<svg width="165" height="36" fill="none" xmlns="http://www.w3.org/2000/svg"><path d="M164.597 20.273c0 1.943-.378 3.582-1.134 4.917-.756 1.33-1.775 2.338-3.06 3.026-1.284.682-2.715 1.023-4.295 1.023-1.591 0-3.028-.344-4.312-1.032-1.279-.693-2.296-1.704-3.052-3.034-.75-1.335-1.125-2.968-1.125-4.9 0-1.943.375-3.58 1.125-4.91.756-1.335 1.773-2.343 3.052-3.025 1.284-.687 2.721-1.031 4.312-1.031 1.58 0 3.011.344 4.295 1.031 1.285.682 2.304 1.69 3.06 3.026.756 1.33 1.134 2.966 1.134 4.909Zm-4.875 0c0-1.046-.14-1.926-.418-2.642-.273-.722-.679-1.267-1.219-1.637-.534-.375-1.193-.562-1.977-.562s-1.446.187-1.986.562c-.534.37-.94.915-1.219 1.637-.272.716-.409 1.596-.409 2.642 0 1.045.137 1.929.409 2.65.279.716.685 1.262 1.219 1.637.54.369 1.202.554 1.986.554s1.443-.185 1.977-.554c.54-.375.946-.92 1.219-1.637.278-.721.418-1.605.418-2.65ZM129.688 29V11.546h4.738v6.818h6.273v-6.819h4.739V29h-4.739v-6.818h-6.273V29h-4.738ZM112.344 11.546h4.738v9.136h.137l6.204-9.136h4.023V29h-4.739v-9.17h-.102L116.298 29h-3.954V11.546ZM105.123 29l-5.352-7.057h-.665V29h-4.739V11.546h4.739v6.579h.614l5.011-6.58h5.966l-6.648 8.387L111.072 29h-5.949Z" fill="#FF3D00"/><path d="M92.175 20.273c0 1.943-.378 3.582-1.134 4.917-.755 1.33-1.775 2.338-3.06 3.026-1.283.682-2.715 1.023-4.295 1.023-1.59 0-3.028-.344-4.312-1.032-1.279-.693-2.296-1.704-3.051-3.034-.75-1.335-1.125-2.968-1.125-4.9 0-1.943.375-3.58 1.125-4.91.755-1.335 1.772-2.343 3.05-3.025 1.285-.687 2.722-1.031 4.313-1.031 1.58 0 3.011.344 4.296 1.031 1.284.682 2.304 1.69 3.06 3.026.755 1.33 1.133 2.966 1.133 4.909Zm-4.875 0c0-1.046-.14-1.926-.418-2.642-.273-.722-.679-1.267-1.219-1.637-.534-.375-1.193-.562-1.977-.562s-1.446.187-1.986.562c-.534.37-.94.915-1.218 1.637-.273.716-.41 1.596-.41 2.642 0 1.045.137 1.929.41 2.65.278.716.684 1.262 1.218 1.637.54.369 1.202.554 1.986.554s1.443-.185 1.977-.554c.54-.375.946-.92 1.22-1.637.278-.721.417-1.605.417-2.65ZM59.516 29V11.546h7.534c1.295 0 2.429.255 3.4.767a5.566 5.566 0 0 1 2.267 2.156c.54.926.81 2.008.81 3.247 0 1.25-.278 2.332-.835 3.247-.551.915-1.327 1.62-2.327 2.114-.994.494-2.156.741-3.486.741h-4.5v-3.682h3.546c.556 0 1.031-.096 1.423-.29.398-.198.702-.48.912-.843.216-.364.324-.793.324-1.287 0-.5-.108-.926-.324-1.279a2.032 2.032 0 0 0-.912-.818c-.392-.193-.867-.29-1.423-.29h-1.67V29h-4.74ZM56.484 11.546V29h-4.67V15.296h-5.898V29h-4.67V11.546h15.238Z" fill="#fff"/><path d="M23.625 13.5h-18a3.375 3.375 0 0 0-3.375 3.375v7.875a3.375 3.375 0 0 0 3.375 3.375h18A3.375 3.375 0 0 0 27 24.75v-7.875a3.375 3.375 0 0 0-3.375-3.375ZM33.75 25.875 27 22.5v-3.375l6.75-3.375v10.125ZM20.25 11.25a4.5 4.5 0 1 0 0-9 4.5 4.5 0 0 0 0 9ZM9 11.25A3.375 3.375 0 1 0 9 4.5a3.375 3.375 0 0 0 0 6.75Z" fill="#FF3D00"/><path d="M34.046 15.272a.564.564 0 0 0-.547-.025l-5.937 2.968v-1.34a3.942 3.942 0 0 0-3.937-3.938h-18a3.942 3.942 0 0 0-3.938 3.938v7.875a3.942 3.942 0 0 0 3.938 3.938h7.642l-4.665 4.664a.563.563 0 0 0 .796.796l5.227-5.228 5.227 5.228a.562.562 0 0 0 .796-.796l-4.665-4.664h7.642a3.942 3.942 0 0 0 3.938-3.938v-1.34l5.936 2.968a.562.562 0 0 0 .813-.503V15.75a.563.563 0 0 0-.266-.478Zm-7.608 9.478a2.816 2.816 0 0 1-2.813 2.813h-18a2.816 2.816 0 0 1-2.813-2.813v-7.875a2.816 2.816 0 0 1 2.813-2.813h18a2.816 2.816 0 0 1 2.813 2.813v7.875Zm6.75.215-5.626-2.813v-2.68l5.625-2.812v8.305ZM20.25 11.813a5.062 5.062 0 1 0 0-10.125 5.062 5.062 0 0 0 0 10.124Zm0-9a3.938 3.938 0 1 1 0 7.875 3.938 3.938 0 0 1 0-7.876Zm-11.25 9a3.938 3.938 0 1 0 0-7.876 3.938 3.938 0 0 0 0 7.876Zm0-6.75a2.812 2.812 0 1 1 0 5.624 2.812 2.812 0 0 1 0-5.624Z" fill="#fff"/></svg>
